frontend/svgs/tip_circle4.svg

<svg xmlns="http://www.w3.org/2000/svg" preserveAspectRatio="none" viewBox="-0.5 -0.5 101 101"><path class="svg_main_path" d="M-.21 50c0-27.61 22.39-50 50-50 13.26 0 25.98 5.27 35.36 14.64A50.042 50.042 0 0199.79 50c0 13.26-5.27 25.98-14.64 35.36A50.042 50.042 0 0149.79 100c-13.26 0-25.98-5.27-35.36-14.64A50.042 50.042 0 01-.21 50zm50-38.14c-21.06 0-38.14 17.08-38.14 38.14 0 21.06 17.08 38.14 38.14 38.14 21.06 0 38.14-17.08 38.14-38.14 0-21.06-17.08-38.14-38.14-38.14z" fill="#f7f7c6" stroke="#000" stroke-miterlimit="10" pointer-events="all"/></svg>

<svg xmlns="http://www.w3.org/2000/svg" xmlns:xlink="http://www.w3.org/1999/xlink" version="1.1" preserveAspectRatio="none" viewBox="-0.5 -0.5 101 101"><defs/><g><path class="svg_main_path" d="M -0.21 50 C -0.21 22.39 22.18 0 49.79 0 C 63.05 0 75.77 5.27 85.15 14.64 C 94.52 24.02 99.79 36.74 99.79 50 C 99.79 63.26 94.52 75.98 85.15 85.36 C 75.77 94.73 63.05 100 49.79 100 C 36.53 100 23.81 94.73 14.43 85.36 C 5.06 75.98 -0.21 63.26 -0.21 50 Z M 49.79 11.86 C 28.73 11.86 11.65 28.94 11.65 50 C 11.65 71.06 28.73 88.14 49.79 88.14 C 70.85 88.14 87.93 71.06 87.93 50 C 87.93 28.94 70.85 11.86 49.79 11.86 Z" fill="#f7f7c6" stroke="#000000" stroke-miterlimit="10" pointer-events="all"/></g></svg>
